ligands/hexadentate/tpen.svg

<svg height="212" viewBox="0 0 140 212" width="140" xmlns="http://www.w3.org/2000/svg"><path d="m5469.22 6628.58-.26-10.42 6.46-8.62 10.92 2.92.7 20.89z" transform="matrix(.05 0 0 .05 -200 -254)"/><path d="m6051.11 6763.79-5.18 19.32-457.93-122.7-.7-20.9z" transform="matrix(.05 0 0 .05 -200 -254)"/><text font-family="Helvetica" font-size="360" font-weight="bold" transform="matrix(.05 0 0 .05 71.221 155.998)">N</text><text font-family="Helvetica" font-size="360" font-weight="bold" transform="matrix(.05 0 0 .05 69.636 62.615)">N</text><path d="m5512.75 5130.79-.07 23.9-389.96 253.48-20-10.85z" transform="matrix(.05 0 0 .05 -200 -254)"/><path d="m5507.06 5202.77 10.9 16.77-342.55 222.66-10.9-16.77z" transform="matrix(.05 0 0 .05 -200 -254)"/><path d="m5102.72 5397.32 20 10.85v499.4l-20 10.35z" transform="matrix(.05 0 0 .05 -200 -254)"/><path d="m5102.72 5917.92 20-10.35 242.42 171.47-11.55 16.33z" transform="matrix(.05 0 0 .05 -200 -254)"/><path d="m5167.2 5889.72 11.55-16.33 221.19 156.45-11.55 16.33z" transform="matrix(.05 0 0 .05 -200 -254)"/><path d="m5692.38 6092.09-11.74-16.19 232.08-168.26 10 5.1-1.16 13.19z" transform="matrix(.05 0 0 .05 -200 -254)"/><path d="m5932.72 5908.7-10 4.04-10-5.1v-489.51l20-10.78z" transform="matrix(.05 0 0 .05 -200 -254)"/><path d="m5872.72 5882.13h-20v-437.06h20z" transform="matrix(.05 0 0 .05 -200 -254)"/><path d="m5932.72 5407.35-20 10.78-400.04-263.44.07-23.9z" transform="matrix(.05 0 0 .05 -200 -254)"/><path d="m5921.56 5925.93 1.16-13.19 10-4.04 285.68 295.65-20.06 8.02z" transform="matrix(.05 0 0 .05 -200 -254)"/><text font-family="Helvetica" font-size="360" font-weight="bold" transform="matrix(.05 0 0 .05 103.694 92.895)">N</text><path d="m6198.34 6212.37 20.06-8.02-3.26 434.53-19.99-.15z" transform="matrix(.05 0 0 .05 -200 -254)"/><path d="m6364.72 6912.76 10-17.32 368.77 212.91h-40z" transform="matrix(.05 0 0 .05 -200 -254)"/><path d="m6037.48 6877.3 8.67 18.02-411.33 197.89-44.21-.93z" transform="matrix(.05 0 0 .05 -200 -254)"/><text font-family="Helvetica" font-size="360" font-weight="bold" transform="matrix(.05 0 0 .05 103.694 122.895)">N</text><path d="m6703.49 7108.35h40l-368.73 212.88-10-17.32z" transform="matrix(.05 0 0 .05 -200 -254)"/><path d="m6193.87 7577.79h20v434.3l-20-7.49z" transform="matrix(.05 0 0 .05 -200 -254)"/><path d="m5590.61 7092.28 44.21.93 410.85 219.34-9.42 17.64z" transform="matrix(.05 0 0 .05 -200 -254)"/><path d="m5411.18 8219.08 15.06 13.17-120.18 137.5-21.01-6.35z" transform="matrix(.05 0 0 .05 -200 -254)"/><path d="m5448.83 8251.99 15.06 13.16-108.28 123.88-15.05-13.16z" transform="matrix(.05 0 0 .05 -200 -254)"/><path d="m5285.05 8363.4 21.01 6.35 77.22 584.13-18.84 10.06z" transform="matrix(.05 0 0 .05 -200 -254)"/><path d="m5364.44 8963.94 18.84-10.06 326.81 287.07 1.86 28.26z" transform="matrix(.05 0 0 .05 -200 -254)"/><path d="m5418 8939.31 13.2-15.02 281.4 247.19-13.2 15.02z" transform="matrix(.05 0 0 .05 -200 -254)"/><path d="m5711.95 9269.21-1.86-28.26 249.28-285.21 21.01 6.34z" transform="matrix(.05 0 0 .05 -200 -254)"/><path d="m5980.38 8962.08-21.01-6.34-77.22-584.13 9.42-5.04 10.51 3.17z" transform="matrix(.05 0 0 .05 -200 -254)"/><path d="m5904.46 8934.84-19.83 2.62-70.52-533.48 19.82-2.62z" transform="matrix(.05 0 0 .05 -200 -254)"/><path d="m5890.63 8352.44.94 14.13-9.42 5.04-179.96-158.08 13.2-15.03z" transform="matrix(.05 0 0 .05 -200 -254)"/><path d="m5902.08 8369.74-10.51-3.17-.94-14.13 303.24-347.84 20 7.49z" transform="matrix(.05 0 0 .05 -200 -254)"/><text font-family="Helvetica" font-size="360" font-weight="bold" transform="matrix(.05 0 0 .05 46.436 89.993)">N</text><path d="m4301.33 6331.7 30.27 11.26 157.26 258.21-12.78 17.47z" transform="matrix(.05 0 0 .05 -200 -254)"/><path d="m4383.61 6370.68 17.08-10.41 122.26 200.75-17.08 10.4z" transform="matrix(.05 0 0 .05 -200 -254)"/><path d="m4476.08 6618.64 12.78-17.47 417.16 101.65-4.73 19.43z" transform="matrix(.05 0 0 .05 -200 -254)"/><path d="m5221.65 6708.33-6.13-19.03 238.31-76.77 15.13 5.63.26 10.42z" transform="matrix(.05 0 0 .05 -200 -254)"/><path d="m5205.79 6659.1-6.13-19.03 187.95-60.55 6.13 19.04z" transform="matrix(.05 0 0 .05 -200 -254)"/><path d="m5475.42 6609.54-6.46 8.62-15.13-5.63-157.26-258.21 12.78-17.47z" transform="matrix(.05 0 0 .05 -200 -254)"/><path d="m5309.35 6336.85-12.78 17.47-569.48-138.77-.76-20.77z" transform="matrix(.05 0 0 .05 -200 -254)"/><path d="m5259.86 6398.04-4.73 19.44-528.1-128.69 4.73-19.43z" transform="matrix(.05 0 0 .05 -200 -254)"/><path d="m4726.33 6194.78.76 20.77-395.49 127.41-30.27-11.26z" transform="matrix(.05 0 0 .05 -200 -254)"/><path d="m5217.29 6875.73 11.61-16.28 313.15 223.4 10.67 19.89-19.14-1.36z" transform="matrix(.05 0 0 .05 -200 -254)"/><path d="m6059.24 7402.58.59 19.99-344.96 10.11-4.31-19.88z" transform="matrix(.05 0 0 .05 -200 -254)"/><text font-family="Helvetica" font-size="360" font-weight="bold" transform="matrix(.05 0 0 .05 35.555 126.007)">N</text><g transform="matrix(.05 0 0 .05 -200 -254)"><path d="m4254.56 7597.81 12.06 17.71-178.68 258.17-31.43 10.26z"/><path d="m4282.53 7645.26 16.44 11.38-139.96 202.21-16.44-11.38z"/><path d="m4056.51 7883.95 31.43-10.26 376.95 130.81-1.08 20.8z"/><path d="m4463.81 8025.3 1.08-20.8 573.88-134.53 12.14 17.7z"/><path d="m4470.49 7950.24-4.56-19.47 533.2-124.99 4.57 19.47z"/><path d="m5050.91 7887.67-12.14-17.7 158.88-232.89 15.07-4.34 6.59 8.08z"/><path d="m5212.79 7621.86-.07 10.88-15.07 4.34-197.57-86.21 8-18.33z"/><path d="m5141.39 7645.26-8 18.33-153.31-66.89 8-18.33z"/><path d="m4684.09 7497.12 4.56 19.47-422.03 98.93-12.06-17.71z"/><path d="m5533.58 7101.38 19.14 1.36-9.98 16.41-532.35 275.18-9.18-17.77z"/><path d="m5564.11 7900.84-20 .03-.62-352.82 19.99-8.4z"/><path d="m5542.74 7119.15 9.98-16.41 10-.02.57 328.55-19.99 8.39z"/><path d="m5518.36 6372.36 19.99-.67 24.36 730.72-9.99.33-10.67-19.89z"/><path d="m5272.92 7152.74a289.8 289.8 0 1 0 579.59 0 289.8 289.8 0 1 0 -579.59 0z" fill="#fa666a"/><path d="m5219.31 7640.82-6.59-8.08.07-10.88 497.77-209.06 4.31 19.88z"/></g></svg>

<?xml version="1.0" standalone="no" ?>
<!DOCTYPE svg PUBLIC "-//W3C//DTD SVG 1.1//EN" "http://www.w3.org/Graphics/SVG/1.1/DTD/svg11.dtd">
<svg width="140px" height="212px" viewBox="0 0 140 212" style="background-color: #ffffff00" xmlns="http://www.w3.org/2000/svg" xmlns:xlink="http://www.w3.org/1999/xlink" version="1.1" >
<path stroke="none" fill="#000000" transform="matrix(0.05 0 0 0.05 -200 -254)" d="M 5469.22,6628.58 L 5468.96,6618.16 L 5475.42,6609.54 L 5486.34,6612.46 L 5487.04,6633.35 L 5469.22,6628.58 L 5469.22,6628.58 Z " />
<path stroke="none" fill="#000000" transform="matrix(0.05 0 0 0.05 -200 -254)" d="M 6051.11,6763.79 L 6045.93,6783.11 L 5588,6660.41 L 5587.3,6639.51 L 6051.11,6763.79 L 6051.11,6763.79 Z " />
<text x="0" y="0" stroke="none" fill="#000000" transform="matrix(0.05 0 0 0.05 71.2209 155.998)" font-style="normal" font-weight="bold" font-size="360px" font-family="Helvetica" >
N</text>
<text x="0" y="0" stroke="none" fill="#000000" transform="matrix(0.05 0 0 0.05 69.6362 62.6147)" font-style="normal" font-weight="bold" font-size="360px" font-family="Helvetica" >
N</text>
<path stroke="none" fill="#000000" transform="matrix(0.05 0 0 0.05 -200 -254)" d="M 5512.75,5130.79 L 5512.68,5154.69 L 5122.72,5408.17 L 5102.72,5397.32 L 5512.75,5130.79 Z " />
<path stroke="none" fill="#000000" transform="matrix(0.05 0 0 0.05 -200 -254)" d="M 5507.06,5202.77 L 5517.96,5219.54 L 5175.41,5442.2 L 5164.51,5425.43 L 5507.06,5202.77 Z " />
<path stroke="none" fill="#000000" transform="matrix(0.05 0 0 0.05 -200 -254)" d="M 5102.72,5397.32 L 5122.72,5408.17 L 5122.72,5907.57 L 5102.72,5917.92 L 5102.72,5397.32 Z " />
<path stroke="none" fill="#000000" transform="matrix(0.05 0 0 0.05 -200 -254)" d="M 5102.72,5917.92 L 5122.72,5907.57 L 5365.14,6079.04 L 5353.59,6095.37 L 5102.72,5917.92 Z " />
<path stroke="none" fill="#000000" transform="matrix(0.05 0 0 0.05 -200 -254)" d="M 5167.2,5889.72 L 5178.75,5873.39 L 5399.94,6029.84 L 5388.39,6046.17 L 5167.2,5889.72 Z " />
<path stroke="none" fill="#000000" transform="matrix(0.05 0 0 0.05 -200 -254)" d="M 5692.38,6092.09 L 5680.64,6075.9 L 5912.72,5907.64 L 5922.72,5912.74 L 5921.56,5925.93 L 5692.38,6092.09 Z " />
<path stroke="none" fill="#000000" transform="matrix(0.05 0 0 0.05 -200 -254)" d="M 5932.72,5908.7 L 5922.72,5912.74 L 5912.72,5907.64 L 5912.72,5418.13 L 5932.72,5407.35 L 5932.72,5908.7 Z " />
<path stroke="none" fill="#000000" transform="matrix(0.05 0 0 0.05 -200 -254)" d="M 5872.72,5882.13 L 5852.72,5882.13 L 5852.72,5445.07 L 5872.72,5445.07 L 5872.72,5882.13 Z " />
<path stroke="none" fill="#000000" transform="matrix(0.05 0 0 0.05 -200 -254)" d="M 5932.72,5407.35 L 5912.72,5418.13 L 5512.68,5154.69 L 5512.75,5130.79 L 5932.72,5407.35 Z " />
<path stroke="none" fill="#000000" transform="matrix(0.05 0 0 0.05 -200 -254)" d="M 5921.56,5925.93 L 5922.72,5912.74 L 5932.72,5908.7 L 6218.4,6204.35 L 6198.34,6212.37 L 5921.56,5925.93 Z " />
<text x="0" y="0" stroke="none" fill="#000000" transform="matrix(0.05 0 0 0.05 103.694 92.8948)" font-style="normal" font-weight="bold" font-size="360px" font-family="Helvetica" >
N</text>
<path stroke="none" fill="#000000" transform="matrix(0.05 0 0 0.05 -200 -254)" d="M 6198.34,6212.37 L 6218.4,6204.35 L 6215.14,6638.88 L 6195.15,6638.73 L 6198.34,6212.37 Z " />
<path stroke="none" fill="#000000" transform="matrix(0.05 0 0 0.05 -200 -254)" d="M 6364.72,6912.76 L 6374.72,6895.44 L 6743.49,7108.35 L 6703.49,7108.35 L 6364.72,6912.76 Z " />
<path stroke="none" fill="#000000" transform="matrix(0.05 0 0 0.05 -200 -254)" d="M 6037.48,6877.3 L 6046.15,6895.32 L 5634.82,7093.21 L 5590.61,7092.28 L 6037.48,6877.3 Z " />
<text x="0" y="0" stroke="none" fill="#000000" transform="matrix(0.05 0 0 0.05 103.694 122.895)" font-style="normal" font-weight="bold" font-size="360px" font-family="Helvetica" >
N</text>
<path stroke="none" fill="#000000" transform="matrix(0.05 0 0 0.05 -200 -254)" d="M 6703.49,7108.35 L 6743.49,7108.35 L 6374.76,7321.23 L 6364.76,7303.91 L 6703.49,7108.35 Z " />
<path stroke="none" fill="#000000" transform="matrix(0.05 0 0 0.05 -200 -254)" d="M 6193.87,7577.79 L 6213.87,7577.79 L 6213.87,8012.09 L 6193.87,8004.6 L 6193.87,7577.79 Z " />
<path stroke="none" fill="#000000" transform="matrix(0.05 0 0 0.05 -200 -254)" d="M 5590.61,7092.28 L 5634.82,7093.21 L 6045.67,7312.55 L 6036.25,7330.19 L 5590.61,7092.28 Z " />
<path stroke="none" fill="#000000" transform="matrix(0.05 0 0 0.05 -200 -254)" d="M 5411.18,8219.08 L 5426.24,8232.25 L 5306.06,8369.75 L 5285.05,8363.4 L 5411.18,8219.08 Z " />
<path stroke="none" fill="#000000" transform="matrix(0.05 0 0 0.05 -200 -254)" d="M 5448.83,8251.99 L 5463.89,8265.15 L 5355.61,8389.03 L 5340.56,8375.87 L 5448.83,8251.99 Z " />
<path stroke="none" fill="#000000" transform="matrix(0.05 0 0 0.05 -200 -254)" d="M 5285.05,8363.4 L 5306.06,8369.75 L 5383.28,8953.88 L 5364.44,8963.94 L 5285.05,8363.4 Z " />
<path stroke="none" fill="#000000" transform="matrix(0.05 0 0 0.05 -200 -254)" d="M 5364.44,8963.94 L 5383.28,8953.88 L 5710.09,9240.95 L 5711.95,9269.21 L 5364.44,8963.94 Z " />
<path stroke="none" fill="#000000" transform="matrix(0.05 0 0 0.05 -200 -254)" d="M 5418,8939.31 L 5431.2,8924.29 L 5712.6,9171.48 L 5699.4,9186.5 L 5418,8939.31 Z " />
<path stroke="none" fill="#000000" transform="matrix(0.05 0 0 0.05 -200 -254)" d="M 5711.95,9269.21 L 5710.09,9240.95 L 5959.37,8955.74 L 5980.38,8962.08 L 5711.95,9269.21 Z " />
<path stroke="none" fill="#000000" transform="matrix(0.05 0 0 0.05 -200 -254)" d="M 5980.38,8962.08 L 5959.37,8955.74 L 5882.15,8371.61 L 5891.57,8366.57 L 5902.08,8369.74 L 5980.38,8962.08 Z " />
<path stroke="none" fill="#000000" transform="matrix(0.05 0 0 0.05 -200 -254)" d="M 5904.46,8934.84 L 5884.63,8937.46 L 5814.11,8403.98 L 5833.93,8401.36 L 5904.46,8934.84 Z " />
<path stroke="none" fill="#000000" transform="matrix(0.05 0 0 0.05 -200 -254)" d="M 5890.63,8352.44 L 5891.57,8366.57 L 5882.15,8371.61 L 5702.19,8213.53 L 5715.39,8198.5 L 5890.63,8352.44 Z " />
<path stroke="none" fill="#000000" transform="matrix(0.05 0 0 0.05 -200 -254)" d="M 5902.08,8369.74 L 5891.57,8366.57 L 5890.63,8352.44 L 6193.87,8004.6 L 6213.87,8012.09 L 5902.08,8369.74 Z " />
<text x="0" y="0" stroke="none" fill="#000000" transform="matrix(0.05 0 0 0.05 46.4364 89.9934)" font-style="normal" font-weight="bold" font-size="360px" font-family="Helvetica" >
N</text>
<path stroke="none" fill="#000000" transform="matrix(0.05 0 0 0.05 -200 -254)" d="M 4301.33,6331.7 L 4331.6,6342.96 L 4488.86,6601.17 L 4476.08,6618.64 L 4301.33,6331.7 Z " />
<path stroke="none" fill="#000000" transform="matrix(0.05 0 0 0.05 -200 -254)" d="M 4383.61,6370.68 L 4400.69,6360.27 L 4522.95,6561.02 L 4505.87,6571.42 L 4383.61,6370.68 Z " />
<path stroke="none" fill="#000000" transform="matrix(0.05 0 0 0.05 -200 -254)" d="M 4476.08,6618.64 L 4488.86,6601.17 L 4906.02,6702.82 L 4901.29,6722.25 L 4476.08,6618.64 Z " />
<path stroke="none" fill="#000000" transform="matrix(0.05 0 0 0.05 -200 -254)" d="M 5221.65,6708.33 L 5215.52,6689.3 L 5453.83,6612.53 L 5468.96,6618.16 L 5469.22,6628.58 L 5221.65,6708.33 L 5221.65,6708.33 Z " />
<path stroke="none" fill="#000000" transform="matrix(0.05 0 0 0.05 -200 -254)" d="M 5205.79,6659.1 L 5199.66,6640.07 L 5387.61,6579.52 L 5393.74,6598.56 L 5205.79,6659.1 L 5205.79,6659.1 Z " />
<path stroke="none" fill="#000000" transform="matrix(0.05 0 0 0.05 -200 -254)" d="M 5475.42,6609.54 L 5468.96,6618.16 L 5453.83,6612.53 L 5296.57,6354.32 L 5309.35,6336.85 L 5475.42,6609.54 L 5475.42,6609.54 Z " />
<path stroke="none" fill="#000000" transform="matrix(0.05 0 0 0.05 -200 -254)" d="M 5309.35,6336.85 L 5296.57,6354.32 L 4727.09,6215.55 L 4726.33,6194.78 L 5309.35,6336.85 Z " />
<path stroke="none" fill="#000000" transform="matrix(0.05 0 0 0.05 -200 -254)" d="M 5259.86,6398.04 L 5255.13,6417.48 L 4727.03,6288.79 L 4731.76,6269.36 L 5259.86,6398.04 Z " />
<path stroke="none" fill="#000000" transform="matrix(0.05 0 0 0.05 -200 -254)" d="M 4726.33,6194.78 L 4727.09,6215.55 L 4331.6,6342.96 L 4301.33,6331.7 L 4726.33,6194.78 Z " />
<path stroke="none" fill="#000000" transform="matrix(0.05 0 0 0.05 -200 -254)" d="M 5217.29,6875.73 L 5228.9,6859.45 L 5542.05,7082.85 L 5552.72,7102.74 L 5533.58,7101.38 L 5217.29,6875.73 Z " />
<path stroke="none" fill="#000000" transform="matrix(0.05 0 0 0.05 -200 -254)" d="M 6059.24,7402.58 L 6059.83,7422.57 L 5714.87,7432.68 L 5710.56,7412.8 L 6059.24,7402.58 Z " />
<text x="0" y="0" stroke="none" fill="#000000" transform="matrix(0.05 0 0 0.05 35.5547 126.007)" font-style="normal" font-weight="bold" font-size="360px" font-family="Helvetica" >
N</text>
<path stroke="none" fill="#000000" transform="matrix(0.05 0 0 0.05 -200 -254)" d="M 4254.56,7597.81 L 4266.62,7615.52 L 4087.94,7873.69 L 4056.51,7883.95 L 4254.56,7597.81 Z " />
<path stroke="none" fill="#000000" transform="matrix(0.05 0 0 0.05 -200 -254)" d="M 4282.53,7645.26 L 4298.97,7656.64 L 4159.01,7858.85 L 4142.57,7847.47 L 4282.53,7645.26 Z " />
<path stroke="none" fill="#000000" transform="matrix(0.05 0 0 0.05 -200 -254)" d="M 4056.51,7883.95 L 4087.94,7873.69 L 4464.89,8004.5 L 4463.81,8025.3 L 4056.51,7883.95 Z " />
<path stroke="none" fill="#000000" transform="matrix(0.05 0 0 0.05 -200 -254)" d="M 4463.81,8025.3 L 4464.89,8004.5 L 5038.77,7869.97 L 5050.91,7887.67 L 4463.81,8025.3 Z " />
<path stroke="none" fill="#000000" transform="matrix(0.05 0 0 0.05 -200 -254)" d="M 4470.49,7950.24 L 4465.93,7930.77 L 4999.13,7805.78 L 5003.7,7825.25 L 4470.49,7950.24 Z " />
<path stroke="none" fill="#000000" transform="matrix(0.05 0 0 0.05 -200 -254)" d="M 5050.91,7887.67 L 5038.77,7869.97 L 5197.65,7637.08 L 5212.72,7632.74 L 5219.31,7640.82 L 5050.91,7887.67 Z " />
<path stroke="none" fill="#000000" transform="matrix(0.05 0 0 0.05 -200 -254)" d="M 5212.79,7621.86 L 5212.72,7632.74 L 5197.65,7637.08 L 5000.08,7550.87 L 5008.08,7532.54 L 5212.79,7621.86 Z " />
<path stroke="none" fill="#000000" transform="matrix(0.05 0 0 0.05 -200 -254)" d="M 5141.39,7645.26 L 5133.39,7663.59 L 4980.08,7596.7 L 4988.08,7578.37 L 5141.39,7645.26 Z " />
<path stroke="none" fill="#000000" transform="matrix(0.05 0 0 0.05 -200 -254)" d="M 4684.09,7497.12 L 4688.65,7516.59 L 4266.62,7615.52 L 4254.56,7597.81 L 4684.09,7497.12 Z " />
<path stroke="none" fill="#000000" transform="matrix(0.05 0 0 0.05 -200 -254)" d="M 5533.58,7101.38 L 5552.72,7102.74 L 5542.74,7119.15 L 5010.39,7394.33 L 5001.21,7376.56 L 5533.58,7101.38 Z " />
<path stroke="none" fill="#000000" transform="matrix(0.05 0 0 0.05 -200 -254)" d="M 5564.11,7900.84 L 5544.11,7900.87 L 5543.49,7548.05 L 5563.48,7539.65 L 5564.11,7900.84 L 5564.11,7900.84 Z " />
<path stroke="none" fill="#000000" transform="matrix(0.05 0 0 0.05 -200 -254)" d="M 5542.74,7119.15 L 5552.72,7102.74 L 5562.72,7102.72 L 5563.29,7431.27 L 5543.3,7439.66 L 5542.74,7119.15 L 5542.74,7119.15 Z " />
<path stroke="none" fill="#000000" transform="matrix(0.05 0 0 0.05 -200 -254)" d="M 5518.36,6372.36 L 5538.35,6371.69 L 5562.71,7102.41 L 5552.72,7102.74 L 5542.05,7082.85 L 5518.36,6372.36 Z " />
<path stroke="none" fill="#fa666a" transform="matrix(0.05 0 0 0.05 -200 -254)" d="M 5272.92,7152.74 A 289.8,289.8 0 1 0 5852.51,7152.74 A 289.8,289.8 0 1 0 5272.92,7152.74 Z " />
<path stroke="none" fill="#000000" transform="matrix(0.05 0 0 0.05 -200 -254)" d="M 5219.31,7640.82 L 5212.72,7632.74 L 5212.79,7621.86 L 5710.56,7412.8 L 5714.87,7432.68 L 5219.31,7640.82 Z " />
</svg>
